X: 29
T:Jerry's Beaver Hat
T:Returned Yank, The
M:6/8
L:1/8
R:Double Jig
K:D
D[|:DFA d2e|fdB BAF|ABA AFD|EFE ~E2D|!
DFA d2e|fdB BAF|ABA dAF|1DED D2D:|2DED D2d|!
|:dfa afd|gbg faf|dfa afd|cee e2f|!
dfa afd|gbg faf|BdB AFA|1DED D2d:|2DED D2D|]!
